public/images/athena-ads/AthenaAdsLogo.svg

<svg width="695" height="319" viewBox="0 0 695 319" fill="none" xmlns="http://www.w3.org/2000/svg">
<g filter="url(#filter0_d_3780_5604)">
<path d="M249.136 189.263L245.987 198.549H236.59L252.831 152.142H264.038L280.279 198.549H270.882L267.733 189.263H249.136ZM258.41 161.972L251.889 181.038H264.906L258.385 161.972H258.41Z" fill="white"/>
<path d="M314.944 184.175C314.944 186.349 314.597 188.374 313.878 190.226C313.159 192.079 312.141 193.684 310.827 195.042C309.513 196.401 307.927 197.463 306.067 198.228C304.207 198.994 302.124 199.364 299.794 199.364C297.463 199.364 295.355 198.994 293.471 198.228C291.586 197.463 290 196.425 288.661 195.067C287.347 193.709 286.33 192.103 285.611 190.251C284.892 188.399 284.545 186.398 284.545 184.2V155.402H293.397V164.17H301.628V172.394H293.397V184.644C293.397 185.46 293.521 186.225 293.769 186.991C294.017 187.756 294.388 188.423 294.909 189.041C295.43 189.633 296.075 190.127 296.893 190.473C297.686 190.819 298.653 191.017 299.769 191.017C300.885 191.017 301.778 190.844 302.596 190.473C303.389 190.127 304.059 189.633 304.58 189.041C305.1 188.448 305.472 187.756 305.72 186.991C305.968 186.225 306.092 185.46 306.092 184.644V181.36H314.944V184.175Z" fill="white"/>
<path d="M352.482 198.549H343.63V178.42C343.63 177.926 343.556 177.309 343.432 176.543C343.308 175.778 343.01 175.061 342.564 174.37C342.118 173.678 341.473 173.086 340.605 172.592C339.762 172.098 338.597 171.851 337.159 171.851C335.126 171.851 333.514 172.443 332.274 173.654C331.034 174.864 330.415 176.444 330.415 178.396V198.525H321.562V148.758H330.415L330.489 165.874C331.605 165.034 332.82 164.367 334.159 163.898C335.473 163.429 336.911 163.206 338.423 163.206C340.531 163.206 342.44 163.577 344.201 164.318C345.936 165.059 347.424 166.071 348.663 167.405C349.903 168.714 350.846 170.319 351.515 172.196C352.185 174.073 352.532 176.148 352.532 178.42V198.549H352.482Z" fill="white"/>
<path d="M367.236 184.768C367.806 186.917 368.872 188.571 370.434 189.782C371.972 190.992 373.807 191.585 375.914 191.585C377.402 191.585 378.791 191.264 380.105 190.621C381.419 189.979 382.46 188.967 383.229 187.584H392.7C391.659 191.115 389.701 193.956 386.824 196.104C383.948 198.278 380.328 199.34 375.989 199.34C373.583 199.34 371.277 198.871 369.145 197.932C366.988 196.994 365.128 195.709 363.517 194.079C361.905 192.449 360.641 190.547 359.699 188.349C358.756 186.176 358.285 183.829 358.285 181.335C358.285 178.84 358.756 176.494 359.699 174.271C360.641 172.073 361.905 170.147 363.517 168.517C365.128 166.886 367.013 165.602 369.145 164.639C371.302 163.676 373.583 163.207 375.989 163.207C378.542 163.207 380.948 163.676 383.204 164.639C385.461 165.602 387.394 167.01 389.006 168.862C390.618 170.715 391.833 172.987 392.626 175.654C393.444 178.322 393.667 181.36 393.37 184.743H367.261L367.236 184.768ZM384.568 177.556C384.022 175.556 382.981 173.95 381.444 172.765C379.907 171.579 378.046 170.986 375.914 170.986C373.906 170.986 372.121 171.579 370.608 172.765C369.096 173.95 368.005 175.531 367.385 177.556H384.568Z" fill="white"/>
<path d="M430.414 198.549H421.562V178.42C421.562 177.926 421.487 177.284 421.363 176.519C421.239 175.728 420.942 174.987 420.52 174.246C420.099 173.505 419.454 172.888 418.611 172.369C417.768 171.851 416.603 171.604 415.115 171.604C413.107 171.604 411.47 172.246 410.255 173.555C409.015 174.839 408.42 176.469 408.42 178.445V198.574H399.568V164.12H408.024V167.454C409.14 166.17 410.429 165.133 411.916 164.367C413.404 163.601 415.065 163.231 416.95 163.231C418.958 163.231 420.818 163.601 422.479 164.342C424.165 165.083 425.578 166.096 426.744 167.43C427.909 168.739 428.802 170.344 429.471 172.221C430.116 174.098 430.438 176.173 430.438 178.445V198.574L430.414 198.549Z" fill="white"/>
<path d="M463.316 198.525H466.416L471.772 183.237V164.096H463.316V167.776C461.977 166.343 460.415 165.232 458.605 164.466C456.82 163.7 454.837 163.33 452.704 163.33C450.572 163.33 448.34 163.799 446.357 164.713C444.373 165.627 442.612 166.887 441.125 168.492C439.637 170.097 438.447 171.999 437.554 174.222C436.687 176.445 436.24 178.816 436.24 181.36C436.24 183.904 436.687 186.275 437.554 188.473C438.422 190.671 439.612 192.573 441.125 194.178C442.612 195.783 444.373 197.043 446.357 197.957C448.34 198.871 450.473 199.34 452.704 199.34C454.936 199.34 456.82 198.969 458.605 198.204C460.391 197.438 461.953 196.327 463.316 194.894V198.574V198.525ZM462.225 185.163C461.754 186.349 461.11 187.361 460.316 188.226C459.523 189.09 458.556 189.782 457.49 190.3C456.424 190.819 455.258 191.066 454.043 191.066C452.828 191.066 451.688 190.819 450.597 190.325C449.506 189.831 448.564 189.164 447.77 188.3C446.952 187.435 446.332 186.423 445.861 185.237C445.39 184.052 445.142 182.792 445.142 181.409C445.142 180.026 445.365 178.742 445.861 177.507C446.332 176.297 446.977 175.234 447.77 174.37C448.589 173.506 449.53 172.814 450.597 172.296C451.663 171.777 452.828 171.53 454.043 171.53C455.258 171.53 456.399 171.777 457.49 172.296C458.581 172.814 459.523 173.506 460.316 174.395C461.134 175.284 461.754 176.321 462.225 177.531C462.697 178.742 462.945 180.026 462.945 181.409C462.945 182.792 462.697 184.002 462.225 185.163Z" fill="white"/>
<path d="M486.351 189.905L483.202 199.191H473.805L490.045 152.784H501.252L517.493 199.191H508.096L504.947 189.905H486.351ZM495.599 162.613L489.078 181.681H502.096L495.574 162.613H495.599Z" fill="#BBE9F4"/>
<path d="M554.686 199.167H546.231V195.487C544.842 196.919 543.255 198.031 541.495 198.796C539.734 199.562 537.776 199.932 535.619 199.932C533.461 199.932 531.254 199.463 529.271 198.549C527.287 197.636 525.527 196.376 524.039 194.77C522.551 193.165 521.361 191.263 520.469 189.065C519.601 186.867 519.154 184.521 519.154 181.952C519.154 179.384 519.601 177.037 520.469 174.814C521.336 172.592 522.526 170.69 524.039 169.085C525.527 167.479 527.287 166.219 529.271 165.306C531.254 164.392 533.387 163.923 535.619 163.923C537.627 163.923 539.511 164.268 541.222 164.96C542.933 165.651 544.47 166.664 545.809 167.948V149.351H554.661V199.117L554.686 199.167ZM545.834 182.026C545.834 180.643 545.586 179.359 545.115 178.149C544.644 176.938 543.999 175.901 543.206 175.012C542.388 174.123 541.445 173.431 540.379 172.913C539.313 172.394 538.148 172.147 536.933 172.147C535.718 172.147 534.577 172.394 533.486 172.913C532.395 173.431 531.453 174.123 530.66 174.987C529.841 175.852 529.221 176.889 528.75 178.124C528.279 179.334 528.031 180.643 528.031 182.026C528.031 183.409 528.254 184.694 528.75 185.854C529.221 187.04 529.866 188.053 530.66 188.917C531.478 189.781 532.42 190.473 533.486 190.942C534.552 191.436 535.718 191.683 536.933 191.683C538.148 191.683 539.288 191.436 540.379 190.918C541.47 190.399 542.413 189.707 543.206 188.843C543.999 187.979 544.644 186.966 545.115 185.78C545.586 184.595 545.834 183.335 545.834 182.026Z" fill="#BBE9F4"/>
<path d="M592.152 188.349C592.152 190.053 591.78 191.609 591.011 193.042C590.267 194.474 589.201 195.684 587.887 196.722C586.548 197.759 584.961 198.549 583.102 199.117C581.242 199.685 579.234 199.982 577.027 199.982C574.82 199.982 572.787 199.71 570.928 199.142C569.043 198.574 567.382 197.784 565.969 196.746C564.53 195.709 563.365 194.449 562.448 192.968C561.53 191.486 560.935 189.831 560.662 187.954H569.663C569.985 188.719 570.407 189.337 570.977 189.831C571.548 190.325 572.143 190.745 572.812 191.066C573.482 191.411 574.2 191.634 574.919 191.757C575.638 191.881 576.358 191.955 577.027 191.955C578.812 191.955 580.3 191.708 581.49 191.189C582.68 190.671 583.275 189.905 583.275 188.892C583.275 188.398 583.176 187.978 583.002 187.633C582.829 187.287 582.457 186.966 581.936 186.694C581.391 186.422 580.647 186.175 579.705 185.928C578.763 185.681 577.523 185.459 576.011 185.237C574.449 185.015 572.812 184.718 571.126 184.323C569.44 183.953 567.878 183.385 566.44 182.619C565.001 181.853 563.836 180.865 562.894 179.63C561.977 178.396 561.505 176.84 561.505 174.913C561.505 173.579 561.803 172.246 562.423 170.912C563.043 169.578 563.935 168.393 565.15 167.356C566.365 166.318 567.903 165.503 569.737 164.836C571.597 164.194 573.779 163.873 576.283 163.873C578.242 163.873 580.077 164.12 581.788 164.639C583.498 165.157 585.011 165.874 586.325 166.812C587.639 167.751 588.73 168.887 589.574 170.22C590.417 171.554 590.987 173.036 591.259 174.642H582.061C581.788 173.851 581.168 173.16 580.226 172.592C579.259 172.023 577.944 171.752 576.308 171.752C574.25 171.752 572.762 172.048 571.87 172.666C570.977 173.258 570.53 173.876 570.53 174.493C570.53 175.382 571.126 176.025 572.341 176.444C573.556 176.84 575.217 177.235 577.374 177.58C579.531 177.926 581.515 178.346 583.325 178.815C585.135 179.285 586.697 179.902 587.986 180.692C589.276 181.483 590.292 182.471 591.036 183.706C591.78 184.941 592.152 186.472 592.152 188.349Z" fill="#BBE9F4"/>
<path d="M314.944 164.145H306.092V172.468H314.944V164.145Z" fill="#BBE9F4"/>
<path d="M168.305 184.817H115.615V189.214H168.305V184.817Z" fill="white"/>
<path d="M109.095 193.289C112.847 193.289 115.888 190.259 115.888 186.522C115.888 182.784 112.847 179.754 109.095 179.754C105.342 179.754 102.301 182.784 102.301 186.522C102.301 190.259 105.342 193.289 109.095 193.289Z" fill="white"/>
<path d="M212.54 197.735C205.126 197.735 193.473 196.648 184.125 190.893L186.456 187.164C197.117 193.733 211.672 193.536 217.152 193.19L215.912 183.064L221.045 173.926L224.813 171.406L217.4 157.822V141.769H221.813V156.711L230.616 172.839L224.367 176.988L220.45 183.953L222.062 197.068L219.879 197.339C219.582 197.389 216.73 197.71 212.54 197.71V197.735Z" fill="white"/>
<path d="M191.589 164.59L189.01 161.033L221.565 137.644L217.896 128.654L184.299 153.229L181.695 149.672L219.879 121.763L226.946 139.2L191.589 164.59Z" fill="white"/>
<path d="M180.553 173.333C173.884 173.333 168.453 167.924 168.453 161.28C168.453 154.636 173.884 149.228 180.553 149.228C187.223 149.228 192.653 154.636 192.653 161.28C192.653 167.924 187.223 173.333 180.553 173.333ZM180.553 153.649C176.313 153.649 172.867 157.082 172.867 161.305C172.867 165.528 176.313 168.961 180.553 168.961C184.793 168.961 188.24 165.528 188.24 161.305C188.24 157.082 184.793 153.649 180.553 153.649Z" fill="white"/>
<path d="M196.853 194.268L189.6 210.381L193.627 212.18L200.88 196.067L196.853 194.268Z" fill="white"/>
<path d="M164.314 205.045L161.041 202.106L168.306 194.104L164.81 173.53L169.174 172.79L173.017 195.462L164.314 205.045Z" fill="white"/>
<path d="M169.469 174.593L129.674 174.469V170.073H168.676L169.469 174.593Z" fill="white"/>
<path d="M127.121 178.89C130.791 178.89 133.766 175.927 133.766 172.271C133.766 168.615 130.791 165.652 127.121 165.652C123.451 165.652 120.477 168.615 120.477 172.271C120.477 175.927 123.451 178.89 127.121 178.89Z" fill="white"/>
<path d="M148.222 163.157L121.988 157.921L122.509 155.698C126.377 139.62 135.675 125.048 148.717 114.65C162.156 103.956 178.372 98.2998 195.605 98.2998C200.96 98.2998 206.292 98.8678 211.524 99.9793L213.68 100.449L207.977 126.505L205.821 126.036C202.448 125.319 199.026 124.949 195.605 124.949C173.512 124.949 154.247 139.817 148.742 161.107L148.222 163.132V163.157ZM127.369 154.513L145.023 158.045C151.668 135.89 172.173 120.602 195.58 120.602C198.58 120.602 201.605 120.849 204.556 121.368L208.375 103.882C204.159 103.116 199.845 102.721 195.555 102.721C179.339 102.721 164.066 108.056 151.42 118.108C139.742 127.394 131.237 140.262 127.319 154.537L127.369 154.513Z" fill="white"/>
<path d="M217.103 128.901C206.962 125.542 197.539 125.023 197.465 124.998L197.688 120.602C198.085 120.602 207.78 121.145 218.516 124.727L217.128 128.901H217.103Z" fill="white"/>
<path d="M143.428 122.327L140.41 125.535L157.366 141.356L160.383 138.148L143.428 122.327Z" fill="white"/>
<path d="M177.913 103.339L173.645 104.457L179.281 125.811L183.549 124.694L177.913 103.339Z" fill="white"/>
</g>
<defs>
<filter id="filter0_d_3780_5604" x="0.000778198" y="-0.000198364" width="694.6" height="339.6" filterUnits="userSpaceOnUse" color-interpolation-filters="sRGB">
<feFlood flood-opacity="0" result="BackgroundImageFix"/>
<feColorMatrix in="SourceAlpha" type="matrix" values="0 0 0 0 0 0 0 0 0 0 0 0 0 0 0 0 0 0 127 0" result="hardAlpha"/>
<feOffset dy="4"/>
<feGaussianBlur stdDeviation="51.15"/>
<feComposite in2="hardAlpha" operator="out"/>
<feColorMatrix type="matrix" values="0 0 0 0 0 0 0 0 0 0 0 0 0 0 0 0 0 0 0.2 0"/>
<feBlend mode="normal" in2="BackgroundImageFix" result="effect1_dropShadow_3780_5604"/>
<feBlend mode="normal" in="SourceGraphic" in2="effect1_dropShadow_3780_5604" result="shape"/>
</filter>
</defs>
</svg>

<svg version="1.2" xmlns="http://www.w3.org/2000/svg" viewBox="94.99999999999997 83 512.9999999999999 131" width="514" height="131">
	<style>
		.s0 { fill: #ffffff } 
		.s1 { fill: #bbe9f4 } 
	</style>
	<g>
		<path class="s0" d="m249.14 189.26l-3.15 9.29h-9.4l16.24-46.41h11.21l16.24 46.41h-9.4l-3.15-9.29zm9.28-27.29l-6.52 19.07h13.01l-6.52-19.07z"/>
		<path class="s0" d="m314.94 184.18q0.01 3.26-1.06 6.05-1.08 2.78-3.05 4.81-1.97 2.04-4.76 3.19-2.79 1.14-6.28 1.13-3.49 0.01-6.32-1.13c-1.88-0.77-3.47-1.8-4.81-3.16q-1.97-2.04-3.05-4.82-1.07-2.76-1.06-6.05v-28.8h8.85v8.77h8.23v8.22h-8.23v12.25q0 1.21 0.37 2.35 0.36 1.14 1.14 2.05c0.52 0.59 1.16 1.09 1.98 1.43q1.2 0.53 2.88 0.55c1.11 0 2.01-0.18 2.83-0.55q1.19-0.53 1.98-1.43 0.77-0.89 1.14-2.05 0.37-1.14 0.37-2.35v-3.28h8.85z"/>
		<path class="s0" d="m352.48 198.55h-8.85v-20.13q-0.01-0.73-0.2-1.88-0.19-1.14-0.87-2.17-0.66-1.04-1.96-1.78-1.27-0.74-3.44-0.74-3.04-0.01-4.89 1.8-1.86 1.82-1.85 4.75v20.12h-8.86v-49.76h8.86l0.07 17.11q1.67-1.26 3.67-1.97 1.98-0.7 4.26-0.69 3.15 0 5.78 1.11 2.6 1.1 4.46 3.08 1.86 1.97 2.85 4.8 1.02 2.81 1.02 6.22v20.13z"/>
		<path class="s0" d="m367.24 184.77q0.85 3.21 3.19 5.01 2.32 1.81 5.48 1.8 2.23 0.01 4.2-0.96 1.97-0.96 3.12-3.04h9.47q-1.56 5.3-5.88 8.52-4.32 3.25-10.83 3.24c-2.41 0-4.71-0.47-6.85-1.41q-3.22-1.41-5.62-3.85-2.41-2.44-3.82-5.73-1.42-3.27-1.41-7.02-0.01-3.73 1.41-7.06 1.41-3.3 3.82-5.75 2.42-2.44 5.62-3.88 3.24-1.44 6.85-1.43 3.83-0.01 7.21 1.43 3.39 1.44 5.81 4.22 2.42 2.79 3.62 6.79c0.81 2.67 1.04 5.71 0.74 9.09h-26.11zm17.33-7.21q-0.82-3.01-3.12-4.79-2.32-1.78-5.53-1.78-3.03 0-5.31 1.78c-1.51 1.18-2.6 2.77-3.22 4.79z"/>
		<path class="s0" d="m430.41 198.55h-8.85v-20.13q0-0.75-0.2-1.9c-0.12-0.79-0.42-1.53-0.84-2.27q-0.64-1.11-1.91-1.88-1.26-0.77-3.5-0.77-3.02 0-4.86 1.95-1.84 1.93-1.83 4.89v20.13h-8.85v-34.45h8.45v3.33q1.67-1.93 3.9-3.08 2.22-1.15 5.03-1.14 3.02 0 5.53 1.11 2.52 1.1 4.26 3.09 1.74 1.97 2.73 4.79 0.97 2.82 0.97 6.22v20.13z"/>
		<path class="s0" d="m463.32 198.53h3.1l5.35-15.29v-19.14h-8.45v3.68q-2.01-2.16-4.71-3.31-2.69-1.15-5.91-1.14c-2.13 0-4.36 0.47-6.34 1.38q-2.99 1.37-5.23 3.78-2.24 2.4-3.58 5.73-1.3 3.33-1.31 7.14 0.01 3.82 1.31 7.11 1.31 3.3 3.58 5.71 2.24 2.41 5.23 3.78 2.98 1.37 6.34 1.38c2.24 0 4.12-0.37 5.91-1.14q2.67-1.15 4.71-3.31v3.68zm-1.09-13.36q-0.72 1.77-1.91 3.07c-0.8 0.86-1.76 1.55-2.83 2.07q-1.61 0.77-3.45 0.77-1.81-0.01-3.44-0.75-1.64-0.73-2.83-2.02-1.21-1.29-1.91-3.06-0.71-1.77-0.72-3.83c0-1.38 0.23-2.67 0.72-3.9q0.71-1.83 1.91-3.14 1.23-1.3 2.83-2.08 1.61-0.77 3.44-0.76 1.82-0.01 3.45 0.76 1.64 0.78 2.83 2.1 1.21 1.33 1.91 3.14 0.71 1.81 0.71 3.88c0 1.38-0.24 2.59-0.71 3.75z"/>
		<path class="s1" d="m486.35 189.91l-3.15 9.28h-9.4l16.24-46.41h11.21l16.24 46.41h-9.39l-3.15-9.28zm9.24-27.3l-6.52 19.07h13.02l-6.52-19.07z"/>
		<path class="s1" d="m554.69 199.17h-8.46v-3.68q-2.09 2.15-4.74 3.31-2.64 1.14-5.87 1.13c-2.16 0-4.37-0.47-6.35-1.38q-2.99-1.37-5.23-3.78-2.23-2.41-3.57-5.7c-0.87-2.2-1.32-4.55-1.32-7.12 0-2.57 0.45-4.91 1.32-7.14q1.3-3.32 3.57-5.72 2.24-2.41 5.23-3.78 2.99-1.38 6.35-1.39 3.02 0 5.6 1.04 2.57 1.05 4.59 2.99v-18.6h8.85v49.77zm-8.85-17.14q-0.01-2.07-0.72-3.88-0.71-1.81-1.91-3.14-1.23-1.33-2.83-2.1-1.61-0.77-3.44-0.76-1.82-0.01-3.45 0.76-1.64 0.78-2.83 2.08-1.21 1.29-1.91 3.13-0.71 1.83-0.71 3.91-0.02 2.08 0.71 3.82 0.72 1.78 1.91 3.07 1.23 1.31 2.83 2.02 1.61 0.74 3.45 0.74 1.81 0.01 3.44-0.76 1.64-0.78 2.83-2.08 1.2-1.29 1.91-3.06 0.71-1.78 0.72-3.75z"/>
		<path class="s1" d="m592.15 188.35q0.01 2.55-1.14 4.69c-0.74 1.43-1.81 2.64-3.12 3.68q-2.01 1.55-4.79 2.4-2.78 0.86-6.07 0.86-3.31 0.01-6.1-0.84-2.84-0.84-4.96-2.39-2.15-1.56-3.52-3.78-1.38-2.21-1.79-5.02h9q0.47 1.15 1.32 1.88 0.84 0.75 1.83 1.24 1.02 0.51 2.11 0.69 1.09 0.19 2.11 0.2 2.67 0 4.46-0.77 1.78-0.78 1.79-2.3-0.01-0.74-0.28-1.26-0.27-0.52-1.06-0.94-0.82-0.4-2.23-0.76-1.42-0.37-3.7-0.69-2.35-0.33-4.88-0.92-2.53-0.55-4.69-1.7-2.15-1.14-3.55-2.99-1.38-1.84-1.38-4.72-0.01-2 0.91-4 0.92-2 2.73-3.55c1.22-1.04 2.75-1.86 4.59-2.52q2.79-0.97 6.54-0.97 2.94 0 5.51 0.77 2.56 0.77 4.54 2.17 1.97 1.41 3.24 3.41 1.27 2.01 1.69 4.42h-9.2q-0.41-1.19-1.83-2.05-1.46-0.84-3.92-0.84-3.1 0-4.44 0.92-1.34 0.89-1.34 1.82-0.01 1.33 1.81 1.95c1.22 0.4 2.88 0.8 5.03 1.14q3.24 0.53 5.96 1.24 2.72 0.69 4.66 1.87 1.93 1.18 3.05 3.02 1.11 1.84 1.11 4.64z"/>
		<path class="s1" d="m314.94 164.15h-8.85v8.32h8.85z"/>
		<path class="s0" d="m168.31 184.82h-52.7v4.39h52.7z"/>
		<path class="s0" d="m109.09 193.29c3.76 0 6.8-3.03 6.8-6.77 0-3.74-3.04-6.77-6.8-6.77-3.75 0-6.79 3.03-6.79 6.77 0 3.74 3.04 6.77 6.79 6.77z"/>
		<path class="s0" d="m212.54 197.74c-7.41 0-19.07-1.09-28.41-6.85l2.33-3.73c10.66 6.57 25.21 6.38 30.69 6.03l-1.24-10.13 5.13-9.13 3.77-2.52-7.41-13.59v-16.05h4.41v14.94l8.81 16.13-6.25 4.15-3.92 6.96 1.61 13.12-2.18 0.27c-0.3 0.05-3.15 0.37-7.34 0.37z"/>
		<path class="s0" d="m191.59 164.59l-2.58-3.56 32.55-23.39-3.66-8.99-33.6 24.58-2.61-3.56 38.19-27.91 7.07 17.44z"/>
		<path class="s0" d="m180.55 173.33c-6.67 0-12.1-5.41-12.1-12.05 0-6.64 5.43-12.05 12.1-12.05 6.67 0 12.1 5.41 12.1 12.05 0 6.64-5.43 12.05-12.1 12.05zm0-19.68c-4.24 0-7.68 3.43-7.68 7.65 0 4.23 3.44 7.66 7.68 7.66 4.24 0 7.69-3.43 7.69-7.66 0-4.22-3.45-7.65-7.69-7.65z"/>
		<path class="s0" d="m196.85 194.27l-7.25 16.11 4.03 1.8 7.25-16.11z"/>
		<path class="s0" d="m164.31 205.04l-3.27-2.93 7.27-8.01-3.5-20.57 4.36-0.74 3.85 22.67z"/>
		<path class="s0" d="m169.47 174.59l-39.8-0.12v-4.4h39.01z"/>
		<path class="s0" d="m127.12 178.89c3.67 0 6.65-2.96 6.65-6.62 0-3.65-2.98-6.62-6.65-6.62-3.67 0-6.64 2.97-6.64 6.62 0 3.66 2.97 6.62 6.64 6.62z"/>
		<path class="s0" d="m148.22 163.16l-26.23-5.24 0.52-2.22c3.87-16.08 13.17-30.65 26.21-41.05 13.44-10.69 29.65-16.35 46.88-16.35 5.36 0 10.69 0.57 15.92 1.68l2.16 0.47-5.7 26.05-2.16-0.46q-5.07-1.09-10.22-1.09c-22.09 0-41.35 14.87-46.86 36.16l-0.52 2.02zm-20.85-8.64l17.65 3.53c6.65-22.16 27.15-37.44 50.56-37.44 3 0 6.02 0.24 8.98 0.76l3.81-17.48c-4.21-0.77-8.53-1.16-12.81-1.16-16.22 0-31.49 5.33-44.14 15.38-11.68 9.29-20.18 22.16-24.1 36.43z"/>
		<path class="s0" d="m217.1 128.9c-10.14-3.36-19.56-3.88-19.63-3.9l0.22-4.4c0.4 0 10.09 0.54 20.83 4.13l-1.39 4.17z"/>
		<path class="s0" d="m143.43 122.33l-3.02 3.2 16.96 15.83 3.01-3.21z"/>
		<path class="s0" d="m177.91 103.34l-4.26 1.12 5.63 21.35 4.27-1.12z"/>
	</g>
</svg>
